X:1
T:Words
C:The Bee Gees
Z:All Rights Reserved
L:1/8
M:4/4
K:G
V:1 treble 
%%MIDI program 0
V:1
"G""^Moderately Slow" B3 B cBAG | B3 B cBAG |"A" A3 E A4 | z4 z2 A2 |"D" A3 A BAGF | A3 A BAGF | %6
w: Smile an ev- er- last- ing|smile; a smile could bring you|near to me.|Don't|ev- er let me find you|gone 'cause that would bring a|
w: Talk in ev- er- last- ing|words and ded- i- cate them|all to me.|And|I will give you all my|life, I'm here if you should|
"C/G" E3"G" D D4 | z4 z2 d2 |"Bb" d3 d _edc_B | z d dd _edc_B |1 c3 A c4 | z4 z2 c2 | %12
w: tear to me.|This|world has lost its glo- ry,|let's start a brand new sto- ry|now, my love.|Right|
w: call to me.|You|think that I don't e- ven|mean _ a sin- gle word I|||
"G" B3 B cBAG | B3 B cBAG |"A" A6 z G |"D" (F/E/ D3) z4 :|2 d8 |: %17
w: now, there'll be no oth- er|time, and I can show you|how, my|love. _ _|say.|
w: |||||
"^Repeat 3 times" z2"^N.C." d2 d2 c2 |"G" B3 B cBAG |"D" A3 A BAGF |"G" G8 :| %21
w: It's on- ly|Words, and Words are all I|have to take your heart a-|way.-|
w: ||||

